!!!COM: Beethoven
!!!OTL: Acht Variationen uber das Trio "Tandeln und Scherzen" aus der Oper: Soliman oder die drei Sultaninnen von Sussmayer
!!!Variation: Variation 1 a
**function	**harm	**kern	**kern
*	*	*clefF4	*clefG2
*	*	*k[b-]	*k[b-]
*M3/8	*M3/8	*M3/8	*M3/8
*F:	*F:	*F:	*F:
=25	=25	=25	=25
4.T	4.I	4.r	(16fLL
.	.	.	16a
.	.	.	16cc
.	.	.	16ff
.	.	.	16aa
.	.	.	16ggJJ)
=26	=26	=26	=26
4.T	4.V	(16CLL	(8ff
.	.	16E	.
.	.	16G	[4ee
.	.	16c	.
.	.	16e	.
.	.	16gJJ)	.
=27	=27	=27	=27
4.T	4.V7	(8b-L	16eeLL])
.	.	.	(16ff
.	.	8cJ)	16ff#
.	.	.	16gg
.	.	8r	16ee
.	.	.	16ccJJ)
=28	=28	=28	=28
4.T	4.I	(16FFLL	(8b-
.	.	16AA	.
.	.	16C	4a)
.	.	16F	.
.	.	16A	.
.	.	16cJJ)	.
=29	=29	=29	=29
4.T	4.IV/V[I]	(8AL	(16fLL
.	.	.	16a
.	.	8FJ)	16cc
.	.	.	16ff
.	.	8r	16aa
.	.	.	16bbJJ)
=30	=30	=30	=30
4.D	4.Ib/V	(16ELL	(8ddd
.	.	16G	.
.	.	16c	4ccc)
.	.	16e	.
.	.	16g	.
.	.	16ccJJ)	.
=31	=31	=31	=31
4D	4Cc/V	8r	(16eeLL 16gg
.	.	.	16dd# 16ff#
.	.	8r	16ee 16gg
.	.	.	16cc) 16ee
8D	8V7/V	8GG	16dd' 16ff'
.	.	.	16b'JJ
=32	=32	=32	=32
*	*	*^	*
4.D	4.V	16r	4.C	(4f 4dd
.	.	(16GLL	.	.
.	.	16A	.	.
.	.	16BJ	.	.
.	.	8cJ)	.	8e) 8cc
*	*	*v	*v	*
*-	*-	*-	*-
